src/assets/svg/google-logo.svg

<svg width="21" height="21" viewBox="0 0 21 21" fill="none" xmlns="http://www.w3.org/2000/svg">
<g clip-path="url(#clip0_554_13)">
<path d="M20.4895 10.6868C20.4895 9.86743 20.4214 9.26949 20.2742 8.64941H10.6992V12.3477H16.3195C16.2062 13.2668 15.5943 14.6509 14.2346 15.581L14.2155 15.7048L17.2429 17.9967L17.4527 18.0171C19.3789 16.2786 20.4895 13.7208 20.4895 10.6868Z" fill="#4285F4"/>
<path d="M10.6983 20.4312C13.4517 20.4312 15.7633 19.5453 17.4517 18.0173L14.2336 15.5812C13.3725 16.1681 12.2166 16.5777 10.6983 16.5777C8.00145 16.5777 5.71254 14.8393 4.89661 12.4365L4.77701 12.4464L1.62906 14.8271L1.58789 14.939C3.26491 18.1944 6.70963 20.4312 10.6983 20.4312Z" fill="#34A853"/>
<path d="M4.89845 12.4363C4.68316 11.8163 4.55857 11.1518 4.55857 10.4653C4.55857 9.77878 4.68316 9.11443 4.88713 8.49435L4.88142 8.36229L1.69402 5.94336L1.58973 5.99183C0.898553 7.34275 0.501953 8.85977 0.501953 10.4653C0.501953 12.0709 0.898553 13.5879 1.58973 14.9388L4.89845 12.4363Z" fill="#FBBC05"/>
<path d="M10.6983 4.35336C12.6132 4.35336 13.905 5.16168 14.6415 5.83718L17.5197 3.09107C15.7521 1.4855 13.4517 0.5 10.6983 0.5C6.70963 0.5 3.26491 2.73672 1.58789 5.99214L4.88528 8.49466C5.71254 6.09183 8.00145 4.35336 10.6983 4.35336Z" fill="#EB4335"/>
</g>
<defs>
<clipPath id="clip0_554_13">
<rect width="20" height="20" fill="white" transform="translate(0.5 0.5)"/>
</clipPath>
</defs>
</svg>

<svg width="21" height="21" viewBox="0 0 21 21" fill="none" xmlns="http://www.w3.org/2000/svg"><g clip-path="url(#a)"><path d="M20.49 10.687c0-.82-.069-1.418-.216-2.038H10.7v3.699h5.62c-.113.919-.725 2.303-2.084 3.233l-.02.124 3.028 2.292.21.02c1.926-1.738 3.037-4.296 3.037-7.33" fill="#4285F4"/><path d="M10.698 20.431c2.754 0 5.065-.886 6.754-2.414l-3.218-2.436c-.861.587-2.017.997-3.536.997a6.13 6.13 0 0 1-5.801-4.141l-.12.01-3.148 2.38-.041.112c1.677 3.255 5.122 5.492 9.11 5.492" fill="#34A853"/><path d="M4.898 12.436a6 6 0 0 1-.34-1.97c0-.687.125-1.352.33-1.972l-.007-.132-3.187-2.419-.104.049a9.8 9.8 0 0 0-1.088 4.473A9.8 9.8 0 0 0 1.59 14.94z" fill="#FBBC05"/><path d="M10.698 4.353c1.915 0 3.207.809 3.944 1.484l2.878-2.746C15.752 1.485 13.452.5 10.698.5 6.71.5 3.265 2.737 1.588 5.992l3.297 2.503a6.15 6.15 0 0 1 5.813-4.142" fill="#EB4335"/></g><defs><clipPath id="a"><path fill="#fff" d="M.5.5h20v20H.5z"/></clipPath></defs></svg>
